X:2112
T:Furnill's Frolic
O:england
B:Joyce, P. W.; "Old Irish Folk Music and Songs"
R:slip jig
L:1/8
M:9/8
K:G
ABA GAG F2 G|ABA AFD EFG|ABA GAG F2 d|cBc AGF GEC:|
|:F2 D E/F/GE D2 F/G/|ABA AFD EFG|F2 D E/F/GE D2 d|cBc AGF GEC:|
|:f2 d cAG F2 G|ABA AFD EFG|f2 d e/f/ge fdB|cBc AGF GEC:|
